X:9001
%%etbk:tnset id:133,pos:1,rep:3
%%etbk:site1 http://www.thesession.org/tunes/display/10230
T: Piper In The Cave, The
M: 4/4
L: 1/8
R: march
K:Bdor
f3a g2eg | f2B2 B3f | fedc Bcde | ~f2fg fece |
[B3f3]a (3gag eg | f2B2 B3f | edcB ABcd | (3efe ec d2 e2 |
f3a g2eg | f2B2 B3f | fedc Bcde | f2 ~f2 f2 ga |
bagb agfa | (3gag eg f3e | edcB ABcd| (3efe ec d2(3cdc ||
B2b2 ^d2b2 | f2b2 b4 | f2bf Bc^de | f2~f2 fe^dc |
B2b2 ^d2b2 | f2b2 b4 | edcB ABcd | e3c d2(3cdc |
B2b2 ^d2b2 | f2b2 b4 | f2bf Bc^de | f2~f2 f2ga |
bagb agfa | (3gag eg f3e | edcB ABcd | (3efe ec d2e2 ||
f2B2 (3gag ec | f2B2 Bcde | ~f2fg fece | f3f fece |
(3fgf B2 (3gag eg | f2B2 Bcdf | e3f ecAc | (3efeec d2e2 |
f2B2 (3gag ec | f2B2 Bcde | ~f2fg fece | f3f ~f2ga |
bagb agfa | (3gag eg f3e | edcB ABcd | (3efe ec d2e2 ||

